X: 1675
T: Another Day
R: waltz
M: 3/4
K: Gmajor
GA|B2 B2 GA|B4 c2|B4 GA|G4 GA|
B4 GA|B2 B2 c2|B4 GA|G2>g2 gf||
e2 e2 cd|B2>g2 gf|e2 e2 c2|A4 GF|
EG d2 A2|B2 B2 c2|B4 GA|G4||

